X:1
T:Title
%%score { ( 1 3 ) | ( 2 4 ) }
L:1/8
Q:1/4=100
M:2/4
K:C
V:1 treble nm="Grand Piano"
V:3 treble 
V:2 bass 
V:4 bass 
V:1
 [EG][EG] [EG][EG] | [EG]2 [EGc]2 | BB Bc | d2 B2 | [EG][EG] [EG][EG] | [FA][GB] [Gc][Gd] | %6
w: W.~H.~Doane * * *||||||
 [Ge]2 [Gc]2 | d4 | Gd d^c | d2 B2 | [EG][Ge] [Ge][^F_e] | [Ge]2 [Gc]2 | [Ad][Ac] [GB]A | Gc de | %14
w: ||||||||
 e2 d2 | [Ec]4 | [Gd]4 | d4 | [Ge]4 | e4 | [Ad][Ac] [GB][FA] | [EG][Gc] [Gd][Ge] | [Ge]2 [Gc]2 | %23
w: |||||||||
 d4 | Gd d^c | d2 B2 | [EG][Ge] [Ge][^F_e] | [Ge]2 [Gc]2 | [Ad][Ac] [GB]A | Gc de | e2 d2 | %31
w: ||||||||
[M:6/4] .[Ec]6 z6 |] %32
w: |
V:2
 [C,C][C,C] [C,C][C,C] | [C,C]2 C,2 | [G,DG][G,DG] [G,DF][G,CE] | [G,B,G]2 [G,DF]2 | %4
 [C,C][C,C] [C,C][C,C] | [F,C][F,D] [E,C][D,B,] | [C,C]2 [E,C]2 | [G,B,G]4 | %8
 [G,B,F][G,B,F] [G,B,F][^G,A,F] | [G,B,F]2 [G,DF]2 | [C,C][C,C] [C,C][C,C] | [C,C]2 [E,C]2 | %12
 [F,C][F,C] [F,C][K:treble][F,CF] | [G,CE][G,EG] [G,B,G][G,CG] | [G,CG]2[K:bass] [G,,B,F]2 | %15
 [C,C]4 | [G,B,]G, G,[K:treble][A,CG] | G4[K:bass] | [C,C]C, E,[K:treble][G,CG] | G4[K:bass] | %20
 [F,C][F,C] [F,C][F,C] | [G,C][E,C] [D,B,][C,C] | [C,C]2 [E,C]2 | [G,B,G]4 | %24
 [G,B,F][G,B,F] [G,B,F][^G,A,F] | [G,B,F]2 [G,DF]2 | [C,C][C,C] [C,C][C,C] | [C,C]2 [E,C]2 | %28
 [F,C][F,C] [F,C][K:treble][F,CF] | [G,CE][G,EG] [G,B,G][G,CG] | [G,CG]2[K:bass] [G,,B,F]2 | %31
[M:6/4] .[C,C]6 z6 |] %32
V:3
 x4 | x4 | x4 | x4 | x4 | x4 | x4 | x4 | x4 | x4 | x4 | x4 | x4 | x4 | x4 | x4 | z B, B,d | %17
 z2 B,2 | z C Ce | z2 C2 | x4 | x4 | x4 | x4 | x4 | x4 | x4 | x4 | x4 | x4 | x4 |[M:6/4] x12 |] %32
V:4
 x4 | x4 | x4 | x4 | x4 | x4 | x4 | x4 | x4 | x4 | x4 | x4 | x3[K:treble] x | x4 | x2[K:bass] x2 | %15
 x4 | x3[K:treble] x | [B,D]2[K:bass] G,2 | x3[K:treble] x | C2[K:bass] C,2 | x4 | x4 | x4 | x4 | %24
 x4 | x4 | x4 | x4 | x3[K:treble] x | x4 | x2[K:bass] x2 |[M:6/4] x12 |] %32

